assets/svg/flashlight_icon.svg

<svg fill="none" height="24" viewBox="0 0 24 24" width="24" xmlns="http://www.w3.org/2000/svg"><path clip-rule="evenodd" d="m9 13.3087c-1.35976-.9487-2.25-2.5246-2.25-4.30876v-1.5c0-.3975.15828-.77922.43954-1.06046s.66296-.43954 1.06046-.43954h7.5c.3975 0 .7792.15828 1.0605.43954.2812.28126.4395.66296.4395 1.06046v1.5c0 1.78426-.8902 3.35996-2.25 4.30876v7.6912c0 .3975-.1583.7793-.4395 1.0605-.2813.2812-.663.4395-1.0605.4395h-3c-.3975 0-.77922-.1582-1.06046-.4395s-.43954-.663-.43954-1.0605zm4.5.7238c-.4755.1417-.9788.2175-1.5.2175s-1.0245-.0758-1.5-.2175v6.9676h3zm-1.5-1.2825c2.0708 0 3.75-1.6792 3.75-3.75v-1.5h-7.5v1.5c0 2.0708 1.67922 3.75 3.75 3.75zm-.75-10.5c0-.41398.336-.75.75-.75s.75.33602.75.75v1.5c0 .41398-.336.75-.75.75s-.75-.33602-.75-.75zm3.8504.42898c.207-.35852.666-.48148 1.0245-.27454.3586.20704.4815.66602.2746 1.02454l-.75 1.29898c-.2071.35852-.666.48148-1.0246.27454-.3585-.20704-.4814-.66602-.2745-1.02454zm-7.5.75c-.20704-.35852-.08398-.8175.27454-1.02454s.8175-.08398 1.02454.27454l.75 1.29898c.20704.35852.08398.8175-.27454 1.02454s-.8175.08398-1.02454-.27454z" fill="#000" fill-rule="evenodd"/></svg>

<svg width="24" height="24" viewBox="0 0 24 24" fill="none" xmlns="http://www.w3.org/2000/svg">
<path fill-rule="evenodd" clip-rule="evenodd" d="M9 13.3087C7.64024 12.36 6.75 10.7841 6.75 8.99994V7.49994C6.75 7.10244 6.90828 6.72072 7.18954 6.43948C7.4708 6.15824 7.8525 5.99994 8.25 5.99994H15.75C16.1475 5.99994 16.5292 6.15822 16.8105 6.43948C17.0917 6.72074 17.25 7.10244 17.25 7.49994V8.99994C17.25 10.7842 16.3598 12.3599 15 13.3087V20.9999C15 21.3974 14.8417 21.7792 14.5605 22.0604C14.2792 22.3416 13.8975 22.4999 13.5 22.4999H10.5C10.1025 22.4999 9.72078 22.3417 9.43954 22.0604C9.1583 21.7791 9 21.3974 9 20.9999V13.3087ZM13.5 14.0325C13.0245 14.1742 12.5212 14.25 12 14.25C11.4788 14.25 10.9755 14.1742 10.5 14.0325V21.0001H13.5V14.0325ZM12 12.75C14.0708 12.75 15.75 11.0708 15.75 9V7.5H8.25V9C8.25 11.0708 9.92922 12.75 12 12.75ZM11.25 2.25C11.25 1.83602 11.586 1.5 12 1.5C12.414 1.5 12.75 1.83602 12.75 2.25V3.75C12.75 4.16398 12.414 4.5 12 4.5C11.586 4.5 11.25 4.16398 11.25 3.75V2.25ZM15.1004 2.67898C15.3074 2.32046 15.7664 2.1975 16.1249 2.40444C16.4835 2.61148 16.6064 3.07046 16.3995 3.42898L15.6495 4.72796C15.4424 5.08648 14.9835 5.20944 14.6249 5.0025C14.2664 4.79546 14.1435 4.33648 14.3504 3.97796L15.1004 2.67898ZM7.6004 3.42898C7.39336 3.07046 7.51642 2.61148 7.87494 2.40444C8.23346 2.1974 8.69244 2.32046 8.89948 2.67898L9.64948 3.97796C9.85652 4.33648 9.73346 4.79546 9.37494 5.0025C9.01642 5.20954 8.55744 5.08648 8.3504 4.72796L7.6004 3.42898Z" fill="black"/>
</svg>
